src/pos-icons/book-open-outline.svg

<svg height="24" viewBox="0 0 24 24" width="24" xmlns="http://www.w3.org/2000/svg"><path d="m21 4h-18a2 2 0 0 0 -2 2v13a2 2 0 0 0 2 2h18a2 2 0 0 0 2-2v-13a2 2 0 0 0 -2-2m-18 15v-13h8v13zm18 0h-8v-13h8zm-7-9.5h6v1.5h-6zm0 2.5h6v1.5h-6zm0 2.5h6v1.5h-6z"/></svg>

<?xml version="1.0" encoding="UTF-8"?><!DOCTYPE svg PUBLIC "-//W3C//DTD SVG 1.1//EN" "http://www.w3.org/Graphics/SVG/1.1/DTD/svg11.dtd"><svg xmlns="http://www.w3.org/2000/svg" xmlns:xlink="http://www.w3.org/1999/xlink" version="1.1" id="mdi-book-open-outline" width="24" height="24" viewBox="0 0 24 24"><path d="M21,4H3A2,2 0 0,0 1,6V19A2,2 0 0,0 3,21H21A2,2 0 0,0 23,19V6A2,2 0 0,0 21,4M3,19V6H11V19H3M21,19H13V6H21V19M14,9.5H20V11H14V9.5M14,12H20V13.5H14V12M14,14.5H20V16H14V14.5Z" /></svg>
